X:90
T:There was a youthful Lawyer
Z:Jack Campin - http://www.campin.me.uk
S:Blaikie MS (NLS MS.1578) p27, Blaikie #84
M:C|
L:1/8
V:1 midi program 1 74
V:2 midi program 1 46 bass middle = d transpose -24 down
V:3 midi program 1 46 bass middle = d transpose -24 down merge
Q:1/2=72
K:C
[V:1] c|A>GAc GECE|D>CDE D2Cc   |A>GAc GECE|D>CDE D2C||
[V:2] x|f2 f2 e2e2|d2 d2 d2x2   |f2 f2 e2e2|d2 d2 d2c||
[V:3] z|c2 c2 c2c2|G2 G2 G2z2   |c2 c2 c2c2|G2 G2 G2x||
%
[V:1] c|GA`cd ecde|Ge`dc d2cz/c/|A>GAc GECE|D>CDE D2C|]
[V:2] z|c2 c2 c2c2|c2 c2 G2c2   |f2 f2 e2e2|d2 d2 d2c|]
[V:3] x|x2 x2 x2x2|x2 x2 x2x2   |c2 c2 c2c2|G2 G2 G2x|]
W:Transcription (c) Jack Campin 2009, no mirroring or republication without permission

